**kern
*staff1
!!pagebreak:original
*I"P1
=1-
*clefG2
*k[f#]
*M3/8
16r
16bb\LL
16ccc\
16bb\
16aa#\
16bb\JJ
=2
4ccc\
8bb\
=3
8.aa\L
16gg\L
16ff#\
16ee\JJ
=4
4.ff#\
=5
16r
16ff#\LL
16gg\
16ff#\
16ee#\
16ff#\JJ
=6
4aa\
8gg\
=7
8.gg\L
16ff#\L
16ee\
16dd#\JJ
=8
[4ee\
16ee\]
16r
*-
